packages/icons/svg/User_Card_IDCard_24px.svg

<svg xmlns="http://www.w3.org/2000/svg" viewBox="0 0 24 24"><path d="M21 4H3a1 1 0 00-1 1v14a1 1 0 001 1h18a1 1 0 001-1V5a1 1 0 00-1-1zm-1 14H4V6h16z"/><path d="M10 12.5a3.5 3.5 0 013.5 3.5h1a4.52 4.52 0 00-2.81-4.17 2.5 2.5 0 10-3.38 0A4.52 4.52 0 005.5 16h1a3.5 3.5 0 013.5-3.5zM8.5 10a1.5 1.5 0 111.5 1.5A1.5 1.5 0 018.5 10zM15 9h3a.5.5 0 000-1h-3a.5.5 0 000 1zM15 11h3a.5.5 0 000-1h-3a.5.5 0 000 1z"/></svg>

<svg xmlns="http://www.w3.org/2000/svg" viewBox="0 0 24 24"><defs></defs><g id="Calque_5" ><path  d="M21,4H3A1,1,0,0,0,2,5V19a1,1,0,0,0,1,1H21a1,1,0,0,0,1-1V5A1,1,0,0,0,21,4ZM20,18H4V6H20Z"/><path  d="M10,12.5A3.5,3.5,0,0,1,13.5,16h1a4.52,4.52,0,0,0-2.81-4.17,2.5,2.5,0,1,0-3.38,0A4.52,4.52,0,0,0,5.5,16h1A3.5,3.5,0,0,1,10,12.5ZM8.5,10A1.5,1.5,0,1,1,10,11.5,1.5,1.5,0,0,1,8.5,10Z"/><path  d="M15,9h3a.5.5,0,0,0,0-1H15a.5.5,0,0,0,0,1Z"/><path  d="M15,11h3a.5.5,0,0,0,0-1H15a.5.5,0,0,0,0,1Z"/></g></svg>
